dist/img/side-menu-button.svg

<svg width="20" height="20" viewBox="0 0 20 20" fill="none" xmlns="http://www.w3.org/2000/svg">
<path d="M6.93758 10L10.9167 14L12.1667 12.7084L9.45841 10L12.1667 7.29169L10.9167 6.00002L6.93758 10ZM1.22925 10C1.22925 8.79169 1.45494 7.6528 1.90633 6.58335C2.35772 5.51391 2.98272 4.57988 3.78133 3.78127C4.57994 2.98266 5.51397 2.35766 6.58341 1.90627C7.65286 1.45488 8.79175 1.22919 10.0001 1.22919C11.2084 1.22919 12.3473 1.45488 13.4167 1.90627C14.4862 2.35766 15.4202 2.98266 16.2188 3.78127C17.0174 4.57988 17.6459 5.51391 18.1042 6.58335C18.5626 7.6528 18.7917 8.78474 18.7917 9.97919C18.7917 11.2014 18.5626 12.3507 18.1042 13.4271C17.6459 14.5035 17.0174 15.4375 16.2188 16.2292C15.4202 17.0209 14.4862 17.6459 13.4167 18.1042C12.3473 18.5625 11.2015 18.7917 9.97925 18.7917C8.7848 18.7917 7.65286 18.5625 6.58341 18.1042C5.51397 17.6459 4.57994 17.0174 3.78133 16.2188C2.98272 15.4202 2.35772 14.4861 1.90633 13.4167C1.45494 12.3472 1.22925 11.2084 1.22925 10V10Z" fill="#00E0FF"/>
</svg>

<svg width="20" height="20" fill="none" xmlns="http://www.w3.org/2000/svg"><path d="m6.938 10 3.979 4 1.25-1.292L9.458 10l2.709-2.708L10.917 6l-3.98 4Zm-5.709 0c0-1.208.226-2.347.677-3.417a8.71 8.71 0 0 1 1.875-2.802 8.71 8.71 0 0 1 2.802-1.875A8.696 8.696 0 0 1 10 1.23c1.208 0 2.347.226 3.417.677a8.709 8.709 0 0 1 2.802 1.875 8.851 8.851 0 0 1 1.885 2.802 8.529 8.529 0 0 1 .688 3.396c0 1.222-.23 2.372-.688 3.448a8.698 8.698 0 0 1-1.885 2.802 8.938 8.938 0 0 1-2.802 1.875 8.633 8.633 0 0 1-3.438.688 8.53 8.53 0 0 1-3.396-.688 8.851 8.851 0 0 1-2.802-1.885 8.71 8.71 0 0 1-1.875-2.802A8.696 8.696 0 0 1 1.23 10Z" fill="#00E0FF"/></svg>
